!!!!SEGMENT: pl-kk--kk-i-382--019-001_anonim--nro-6-alleluia-ave-maria.krn
!!!cenid: 18xx:1487
!!!COM: Anonim
!!!COM-rismid: pe30004985
!!!CDT:
!!!CNT:
!!!OPR: Nro 6
!!!OTL: Alleluia Ave Maria
!!!OMV: 004
!!!PDT:
!!!AGN: Sacred
!!!SMS-siglum: PL-Kk
!!!SMS-shelfmark: Kk.I.382
!!!SMS-shelfwork: 006-004 M
!!!SMS-variant:
!!!SMS-altvar:
!!!NIFC-rismid: 1001139135
!!!URL-scan: http://repozytorium.nifc.pl/skany/pl-kk-nut--i-382
!!!ONB-nifc: UWAGA: obsada: S (T 1), A (B 1), T 2, B 2; S (T 1): skan 0018; A (B 1): skan 0163; T 2: skan 0089-0090; B 2: skan 0235
**kern	**text	**dynam	**kern	**text	**kern	**text	**kern	**text
*part4	*part4	*part4	*part3	*part3	*part2	*part2	*part1	*part1
*staff4	*staff4	*	*staff3	*staff3	*staff2	*staff2	*staff1	*staff1
*I"Basso II	*	*	*I"Tenore II	*	*I"Alto vel Basso I	*	*I"Soprano vel Tenore I.	*
*I'B 2	*	*	*I'T 2	*	*I'A (B 1)	*	*I'S (T 1)	*
*clefF4	*	*	*clefC4	*	*clefC3	*	*clefC1	*
*k[b-]	*	*	*k[b-]	*	*k[b-]	*	*k[b-]	*
*F:	*	*	*F:	*	*F:	*	*F:	*
*M3/2	*	*	*M3/2	*	*M3/2	*	*M3/2	*
=1	=1	=1	=1	=1	=1	=1	=1	=1
*2\right	*	*	*2\right	*	*2\right	*	*2\right	*
*	*	*	*rscale:1/2	*	*	*	*rscale:1/2	*
!LO:TX:t=P:problem:all\right:global	!	!	!LO:TX:t=P:problem:all\right:global	!	!LO:TX:t=P:problem:all\right:global	!	!LO:TX:t=P:problem:all\right:global	!
!	!	!	!	!	!LO:TX:t=P:problem:niejednoznaczny zapis metrum: 3/2 lub 3/4	!	!	!
!LO:TX:t=P:problem:napis "Graduale." przed kluczem	!	!	!LO:TX:t=P:problem:napis "Graduale" przed kluczem	!	!LO:TX:t=P:problem:napis "Graduale" przed kluczem	!	!LO:TX:t=P:problem:fragment trójdzielny zapisany w metrum 3/4 i o połowę krótszymi wartościami	!
!	!	!	!LO:TX:t=P:problem:fragment trójdzielny zapisany w metrum 3/4 i o połowę krótszymi wartościami	!	!	!	!LO:TX:t=P:problem:napis "Graduale." na pięciolinii przed kluczem	!
!LO:TX:a:t=Graduale.	!	!	!LO:TX:a:t=Graduale	!	!LO:TX:a:t=Graduale	!	!LO:TX:a:t=Graduale.	!
2F\	Al-	.	2c\	Al-	2f\	Al-	2a\	Al-
2F\	-le-	.	2c\	-le-	2f\	-le-	2a\	-le-
2C/	-lu-	.	2c\	-lu-	2e\	-lu-	2g\	-lu-
=2	=2	=2	=2	=2	=2	=2	=2	=2
1F	-ia	.	1c	-ia	2f\	-ia	2a\	-ja
.	.	.	.	.	(>4f\	.	(>4a\L	al-
.	.	.	.	.	4g\	.	4b-\J	.
2FF/	.	.	2c\	al-	2a\)	.	2cc\	.
=3	=3	=3	=3	=3	=3	=3	=3	=3
2BB-/	al-	.	(>2d\	-le-	2g\	al-	2b-\)	.
2F\	-le-	.	2c\)	.	(>4f\	-le-	(>4a\L	-le-
.	.	.	.	.	4a\)	.	4cc\)J	.
2B-\	-lu-	.	2d\	-lu-	(>4g\	-lu-	(>4b-\L	-lu-
.	.	.	.	.	4f\)	.	4a\)J	.
=4	=4	=4	=4	=4	=4	=4	=4	=4
1c	-ia	.	1c	-ia	1e	-ia	2g\	-ja
.	.	.	.	.	.	.	[>1cc	al-
2C/	al-	.	2c\	al-	(>4a\	al-	.	.
.	.	.	.	.	4g\)	.	.	.
=5	=5	=5	=5	=5	=5	=5	=5	=5
1D	-le-	.	(>2A\	-le-	(>2f\	-le-	2cc\]	.
.	.	.	2F/	.	2d\)	.	1b-	-le-
2E\	-lu-	.	2c\)	.	2g\	-lu-	.	.
!	!	!	!	!	!LO:LB:g=original	!	!LO:LB:g=original	!
=6	=6	=6	=6	=6	=6	=6	=6	=6
2F\	-ia	.	2c\	-lu-	2f\	-ia	2b-\	-lu-
2F\	al-	.	2c\	-ia	2f\	al-	2a\	-ja
2A\	.	.	2c\	al-	2f\	-le-	2cc\	al-
=7	=7	=7	=7	=7	=7	=7	=7	=7
2B-\	-le-	.	(>2d\	-le-	(>1f	-lu-	(>2b-\	-le-
2c\	.	.	2c\)	.	.	.	2g\)	.
2C/	-lu-	.	2c\	-lu-	2e\)	.	2g\	-lu-
=8	=8	=8	=8	=8	=8	=8	=8	=8
2F\	-ia	.	2c\	-ia	2f\	-ia	2a\	-ja
2E\	.	.	2G/	al-	2g\	al-	(>2cc#X\	al-
2D\	.	.	2A/	.	(>2f\	-le-	2dd\)	.
!LO:LB:g=original	!	!	!LO:LB:g=original	!	!	!	!	!
=9	=9	=9	=9	=9	=9	=9	=9	=9
2G\	al-	.	(>2B-\	-le-	2f\	.	1dd	-le-
2A\	-le-	.	2A\)	.	2.e\)	.	.	.
2AA/	-lu-	.	2A\	-lu-	.	.	2cc#X\	-lu-
.	.	.	.	.	4e\	-lu-	.	.
=10	=10	=10	=10	=10	=10	=10	=10	=10
2D\	-ia	.	2A\	-ia	2f#X\	-ia	2dd\	-ja
2G\	al-	.	1G	al-	2g\	al-	(>2bn\	al-
2C/	.	.	.	.	(>2e\	-le-	2ccn\)	.
=11	=11	=11	=11	=11	=11	=11	=11	=11
2F\	-le-	.	2A/	-le-	4f\	.	1cc	-le-
.	.	.	.	.	4e\)	.	.	.
2G\	.	.	2G/	.	1d	-lu-	.	.
2GG/	-lu-	.	2G/	-lu-	.	.	2bn\	-lu-
=12	=12	=12	=12	=12	=12	=12	=12	=12
2C/	-ia	.	2G/	-ia	2e\	-ia	2cc\	-ia
2c\	al-	.	(<2G/	al-	2e\	al-	1cc	al-
2F\	.	.	2A/)	.	2f\	-le-	.	.
!	!	!	!	!	!LO:LB:g=original	!	!LO:LB:g=original	!
=13	=13	=13	=13	=13	=13	=13	=13	=13
2B-\	-le-	.	(>2d\	-le-	(>1f	-lu-	(>4b-\L	-le-
.	.	.	.	.	.	.	4a\)J	.
2c\	.	.	2c\)	.	.	.	1g	-lu-
2C/	-lu-	.	2c\	-lu-	2e\)	.	.	.
=14	=14	=14	=14	=14	=14	=14	=14	=14
!	!	!	!LO:TX:b:i:t=Seque Ave. V&colon;S&colon;	!	!	!	!	!
!	!	!	!LO:TX:a:t=P:problem:napis na pięciolinii za kreską	!	!	!	!	!
1.F	-ia.	.	1.c	-ia.	1.f	-ia.	1.a	-ja.
!	!	!	!LO:PB:g=original	!	!	!	!	!
==15	==15	==15	==15	==15	==15	==15	==15	==15
*M4/4	*	*	*M4/4	*	*M4/4	*	*M4/4	*
*met(C.)	*	*	*met(C.)	*	*met(C.)	*	*met(C.)	*
*	*	*	*rscale:1	*	*	*	*rscale:1	*
!LO:TX:i:a:t=Solo.	!	!	!	!	!	!	!	!
4c\	A-	.	4c\	A-	2r	.	4cc\	A-
8c\	-ve	.	8c\	-ve	.	.	8cc\	-ve
8c\	ma-	.	8c\	ma-	.	.	8cc\	ma-
8A\L	-ri-	.	8A\L	-ri-	4f\	A-	(>8a\L	-ri-
16c\L	.	.	16c\L	.	.	.	16cc\L	.
16B-\JJ	.	.	16B-\JJ	.	.	.	16b-\JJ)	.
(>8A\L	-a	.	8A/L	-a	8f\	-ve	(>8a\L	-a
8F\J)	.	.	8F/J	.	8f\	ma-	8f\J)	.
!LO:LB:g=original	!	!	!	!	!	!	!	!
=16	=16	=16	=16	=16	=16	=16	=16	=16
4G\	gra-	.	4c\	A-	(>8e\L	-ri-	4g\	a-
.	.	.	.	.	16g\L	.	.	.
.	.	.	.	.	16f\JJ)	.	.	.
8G\	-ti-	.	8c\	-ve	(>8e\L	-a	8g\	-ve
8G\	-a,	.	8c\	ma-	8c\J)	.	8g\	ma-
!LO:TX:a:t=P:problem:oznaczenie dynamiczne na pięciolinii przed nutą	!	!LO:DY:b:t=f.:rj	!	!	!	!	!	!
4F\	A-	f	8A\L	-ri-	4c\	a-	4a\	-ri-
.	.	.	16c\L	.	.	.	.	.
.	.	.	16B-\JJ	.	.	.	.	.
8F\	-ve	.	8A/L	-a	8c\	-ve	8a\	-a
8F\	ma-	.	8F/J	.	8f\	ma-	8b-\	ma-
!	!	!	!	!	!	!	!LO:LB:g=original	!
=17	=17	=17	=17	=17	=17	=17	=17	=17
8E\L	-ri-	.	8G/L	a-	4g\	-ri-	4cc\	-ri-
16G\L	.	.	16B-/L	.	.	.	.	.
16F\JJ	.	.	16A/JJ	.	.	.	.	.
(>8E\L	-a	.	8G/	-ve	4g\	-a	4cc\	-a
8C\J)	.	.	8G/	ma-	.	.	.	.
4D\	ma-	.	4d\	-ri-	4f\	a-	[>2b-X\	gra-
8D\	-ri-	.	(>8d\L	-a	(>8f\L	-ve	.	.
8E\	-a	.	8c\J)	.	8g\J)	.	.	.
!	!	!	!	!	!LO:LB:g=original	!	!	!
=18	=18	=18	=18	=18	=18	=18	=18	=18
4F\	gra-	.	4c\	gra-	4f\	gra-	4b-\]	.
8F\	-ti-	.	8c\	-ti-	8f\	-ti-	8a\	-ti-
8G\	-a	.	8B-\	-a	8e\	-a	8b-\	-a
!	!	!	!LO:LB:g=original	!	!	!	!	!
(>8A\L	ple-	.	8A\L	ple-	4f\	ple-	(>8cc\L	ple-
8G\J)	.	.	8B-\J	.	.	.	8b-\J)	.
(>8A\L	-na	.	4c\	-na	4f\	-na	(>8cc\L	-na
8F\J)	.	.	.	.	.	.	8a\J)	.
=19	=19	=19	=19	=19	=19	=19	=19	=19
(<8E/L	Do-	.	4c\	Do-	4g\	Do-	8cc\	Do-
8D/J)	.	.	.	.	.	.	8cc\	-mi-
(<8E/L	-mi-	.	8c\	-mi-	8g\	-mi-	4cc\	-nus
8C/J)	.	.	8c\	-nus	8g\	-nus	.	.
!LO:LB:g=original	!	!	!	!	!	!	!	!
(>8F\L	-nus	.	4A/	te-	(>4f\	te-	(>4cc\	te-
8D\J)	.	.	.	.	.	.	.	.
!LO:TX:t=P:problem:mixed beam	!	!	!	!	!	!	!	!
(>8G\L	te-	.	4G/	.	4d\)	.	4bn\)	.
8GG/J)	.	.	.	.	.	.	.	.
=20	=20	=20	=20	=20	=20	=20	=20	=20
8C/	-cum	.	4G/	-cum	4e\	-cum	4cc\	-cum
8c\	be-	.	.	.	.	.	.	.
8c\	-ne-	.	4r	.	4r	.	4r	.
8c\	-dic-	.	.	.	.	.	.	.
8A\L	-ta	.	2r	.	2r	.	8r	.
16c\L	.	.	.	.	.	.	8ff\	be-
16B-\JJ	.	.	.	.	.	.	.	.
8A\L	.	.	.	.	.	.	8ff\	-ne-
8F\J	.	.	.	.	.	.	8ff\	-dic-
!	!	!	!	!	!	!	!LO:LB:g=original	!
=21	=21	=21	=21	=21	=21	=21	=21	=21
8C/	tu	.	8r	.	2r	.	8ee\L	-ta
8C/	in	.	8c\	be-	.	.	16gg\L	.
.	.	.	.	.	.	.	16ff\JJ	.
8C/	mu-	.	8c\	-ne-	.	.	8ee\L	.
8C/	-li-	.	8c\	-dic-	.	.	8cc\J	.
4F\	-e-	.	8A\L	-ta	8r	.	4cc\	tu
.	.	.	16c\L	.	8f\	be-	.	.
.	.	.	16B-\JJ	.	.	.	.	.
4F\	-ri-	.	8A/L	tu	8f\	-ne-	4cc\	in
.	.	.	8F/J	.	8f\	-dic-	.	.
=22	=22	=22	=22	=22	=22	=22	=22	=22
4G\	-bus	.	4B-\	in	(>8e\L	-ta	4b-X\	mu-
.	.	.	.	.	16g\L	.	.	.
.	.	.	.	.	16f\JJ)	.	.	.
8G\	mu-	.	8G/	mu-	(>8e\L	tu	(>8b-\L	-li-
8A\	-li-	.	8c\	-li-	8c\J)	.	8cc\J)	.
!	!	!	!	!	!LO:LB:g=original	!	!	!
4.B-\	-e-	.	(>4.B-\	-e-	4f\	in	4.dd\	-e-
.	.	.	.	.	8g\	mu-	.	.
16A\LL	.	.	16c\LL	.	8g\	-li-	16cc\LL	.
16G\JJ	.	.	16d\JJ)	.	.	.	16b-\JJ	.
!LO:LB:g=original	!	!	!LO:LB:g=original	!	!	!	!	!
=23	=23	=23	=23	=23	=23	=23	=23	=23
4.A\	.	.	4.A\	.	4.f\	-e-	4.cc\	.
16G\LL	-ri-	.	16B-\LL	-ri-	(>16g\LL	-ri-	(>16b-\LL	-ri-
16F\JJ	.	.	16c\JJ	.	16a\JJ)	.	16a\JJ)	.
4G\	-bus	.	4B-\	-bus	4e\	-bus	4b-\	-bus
[>4c\	et	.	4c\	et	4e\	et	4cc\	et
=24	=24	=24	=24	=24	=24	=24	=24	=24
4c\]	.	.	4d\	be-	4f\	be-	4a\	be-
8B-\	be-	.	4d\	-ne-	4g\	-ne-	4b-\	-ne-
8B-\	-ne-	.	.	.	.	.	.	.
4B-\	-dic-	.	4B-\	-dic-	4e\	-dic-	4g\	-dic-
4A\	-tus	.	4c\	-tus	4f\	-tus	4a\	-tus
!	!	!	!	!	!	!	!LO:LB:g=original	!
=25	=25	=25	=25	=25	=25	=25	=25	=25
4G\	fruc-	.	(>4d\	fruc-	4f\	fruc-	4.b-\	fruc-
4c\	-tus	.	4c\)	.	4e\	-tus	.	.
.	.	.	.	.	.	.	8b-\	-tus
4.F\	fruc-	.	(>4c\	-tus	4.f\	ven-	4cc\	ven-
.	.	.	4A\)	.	.	.	4dd\	-tris
8F\	-tus	.	.	.	8f\	-tris	.	.
=26	=26	=26	=26	=26	=26	=26	=26	=26
4.E\	ven-	.	4B-\	ven-	4.g\	ven-	(>4dd\	tu-
.	.	.	4G/	-tris	.	.	2cc\	.
8E\	-tris	.	.	.	8g\	-tris	.	.
(>4D\	tu-	.	4A/	tu-	2f\	tu-	.	.
4G\)	.	.	4G/	.	.	.	4bn\)	.
!	!	!	!	!	!LO:LB:g=original	!	!	!
=27	=27	=27	=27	=27	=27	=27	=27	=27
8C/	-i	.	8G/	-i	8e\	-i	8cc\	-i
8c\	et	.	8G/	et	8c\	et	8cc\	et
!LO:LB:g=original	!	!	!	!	!	!	!	!
8A\	be-	.	8A\	be-	2f\	be-	8cc\	be-
8F\	-ne-	.	8c\	-ne-	.	.	8cc\	-ne-
8G\L	-dic-	.	8G/	-dic-	.	.	8bn\	-dic-
8Bn\J	.	.	8G/	-tus	.	.	8g\	-tus
!LO:TX:t=P:problem:mixed beam	!	!	!	!	!	!	!	!
8c\L	-tus	.	4c\	fru-	4e\	-ne-	8gg\	fruc-
8C/J	.	.	.	.	.	.	8gg\	-tus
!	!	!	!LO:LB:g=original	!	!	!	!LO:LB:g=original	!
=28	=28	=28	=28	=28	=28	=28	=28	=28
8D\L	fruc-	.	4A\	-ctus	4e\	-dic-	2ff\	ven-
8E\J	.	.	.	.	.	.	.	.
8F\L	-tus	.	8A\L	ven-	4d\	-tus	.	.
8G\J	.	.	8B-\J	.	.	.	.	.
8A\L	ven-	.	8A\L	-tris	4.d\	fruc-	2ee\	-tris
8G\J	.	.	8B-\J	.	.	.	.	.
8A\L	-tris	.	(>4c\	tu-	.	.	.	.
8E\J	.	.	.	.	8c\	-tus	.	.
=29	=29	=29	=29	=29	=29	=29	=29	=29
!LO:TX:t=P:problem:mixed beam	!	!	!	!	!	!	!	!
8F\L	tu-	.	4c\	.	4f\	ven-	2dd\	tu-
8D\	.	.	.	.	.	.	.	.
8G\	.	.	4Bn\)	.	4g\	-tris	.	.
8GG/J	.	.	.	.	.	.	.	.
4C/	-i	.	4c\	-i	4g\	tu-	4ee\	-i
8c\	be-	.	8c\	be-	4e\	-i	8g\	be-
8B-\	-ne-	.	8c\	-ne-	.	.	8g\	-ne-
=30	=30	=30	=30	=30	=30	=30	=30	=30
4A\	-dic-	.	4c\	-dic-	(>8f\L	be-	(>8a\L	-dic-
.	.	.	.	.	8a\J)	.	8cc\J)	.
4B-\	-tus	.	4d\	-tus	(>8g\L	-ne-	(>8b-\L	-tus
.	.	.	.	.	8f\J)	.	8a\J)	.
8c\	fruc-	.	8c\	fruc-	4e\	-dic-	8g\	fruc-
8C/	-tus	.	8c\	-tus	.	.	8g\	-tus
!LO:LB:g=original	!	!	!	!	!	!	!	!
8F\	ven-	.	8c\	ven-	4f\	-tus	8cc\	ven-
!	!	!	!	!	!	!	!LO:TX:b:i:t=V&colon;S&colon;	!
!	!	!	!	!	!	!	!LO:TX:b:t=P:problem:napis na pięciolinii na kreską taktową	!
8E\	-tris	.	8c\	-tris	.	.	8cc\	-tris
!	!	!	!	!	!LO:LB:g=original	!	!LO:PB:g=original	!
=31	=31	=31	=31	=31	=31	=31	=31	=31
4D\	tu-	.	4A/	tu-	4f\	fruc-	4cc\	tu-
4G\	-i	.	4G/	-i	4f\	-tus	4bn\	-i
8C/	fruc-	.	8G/	fruc-	4e\	ven-	8cc\	fruc-
8C/	-tus	.	8G/	-tus	.	.	8cc\	-tus
!	!	!	!LO:LB:g=original	!	!	!	!	!
8F\	ven-	.	8A\	ven-	4d\	-tris	8cc\	ven-
8F\	-tris	.	8A\	-tris	.	.	8cc\	-tris
=32	=32	=32	=32	=32	=32	=32	=32	=32
4G\	tu-	.	2G/	tu-	2d\	tu-	(>4cc\	tu-
4GG/	.	.	.	.	.	.	4bn\)	.
2C/	-i.	.	2G/	-i.	2e\	-i.	2cc\	-i.
!LO:TX:b:i:t=Alleluia Da Capo.	!	!	!	!	!LO:TX:b:i:t=Alleluia Da Capo.	!	!LO:TX:b:i:t=Alleluia Da Capo.	!
!LO:TX:b:t=P:problem:Napis na pięciolinii za kreską	!	!	!	!	!LO:TX:b:t=P:problem:Napis na pięciolinii za kreską	!	!LO:TX:b:t=P:problem:Napis na pięciolinii za kreską	!
==33	==33	==33	==33	==33	==33	==33	==33	==33
*M3/2	*	*	*M3/2	*	*M3/2	*	*M3/2	*
*	*	*	*rscale:1/2	*	*	*	*rscale:1/2	*
!	!	!	!LO:TX:t=P:problem:fragment trójdzielny zapisany w metrum 3/4 i o połowę krótszymi wartościami	!	!	!	!LO:TX:t=P:problem:fragment trójdzielny zapisany w metrum 3/4 i o połowę krótszymi wartościami	!
2F\yy	Al-	.	2c\	Al-	2f\yy	Al-	2a\yy	Al-
2F\yy	-le-	.	2c\	-le-	2f\yy	-le-	2a\yy	-le-
2C/yy	-lu-	.	2c\	-lu-	2e\yy	-lu-	2g\yy	-lu-
=34	=34	=34	=34	=34	=34	=34	=34	=34
1Fyy	-ia	.	1c	-ia	2f\yy	-ia	2a\yy	-ja
.	.	.	.	.	(>4f\yy	.	(>4a\Lyy	al-
.	.	.	.	.	4g\yy	.	4b-\Jyy	.
2FF/yy	.	.	2c\	al-	2a\)yy	.	2cc\yy	.
=35	=35	=35	=35	=35	=35	=35	=35	=35
2BB-/yy	al-	.	(>2d\	-le-	2g\yy	al-	2b-\)yy	.
2F\yy	-le-	.	2c\)	.	(>4f\yy	-le-	(>4a\Lyy	-le-
.	.	.	.	.	4a\)yy	.	4cc\)Jyy	.
2B-\yy	-lu-	.	2d\	-lu-	(>4g\yy	-lu-	(>4b-\Lyy	-lu-
.	.	.	.	.	4f\)yy	.	4a\)Jyy	.
=36	=36	=36	=36	=36	=36	=36	=36	=36
1cyy	-ia	.	1c	-ia	1eyy	-ia	2g\yy	-ja
.	.	.	.	.	.	.	[>1ccyy	al-
2C/yy	al-	.	2c\	al-	(>4a\yy	al-	.	.
.	.	.	.	.	4g\)yy	.	.	.
=37	=37	=37	=37	=37	=37	=37	=37	=37
1Dyy	-le-	.	(>2A\	-le-	(>2f\yy	-le-	2cc\]yy	.
.	.	.	2F/)	.	2d\)yy	.	1b-yy	-le-
2E\yy	-lu-	.	2c\	-lu-	2g\yy	-lu-	.	.
=38	=38	=38	=38	=38	=38	=38	=38	=38
2F\yy	-ia	.	2c\	-ia	2f\yy	-ia	2b-\yy	-lu-
2F\yy	al-	.	2c\	al-	2f\yy	al-	2a\yy	-ja
2A\yy	.	.	2c\	-le-	2f\yy	-le-	2cc\yy	al-
=39	=39	=39	=39	=39	=39	=39	=39	=39
2B-\yy	-le-	.	2d\	-lu-	(>1fyy	-lu-	(>2b-\yy	-le-
2c\yy	.	.	1c\	.	.	.	2g\)yy	.
2C/yy	-lu-	.	.	.	2e\)yy	.	2g\yy	-lu-
!	!	!	!LO:LB:g=original	!	!	!	!	!
=40	=40	=40	=40	=40	=40	=40	=40	=40
2F\yy	-ia	.	2c\	-ia	2f\yy	-ia	2a\yy	-ja
2E\yy	.	.	2G/	al-	2g\yy	al-	(>2cc#X\yy	al-
2D\yy	.	.	2A/	.	(>2f\yy	-le-	2dd\)yy	.
=41	=41	=41	=41	=41	=41	=41	=41	=41
2G\yy	al-	.	2B-\	-le-	2f\yy	.	1ddyy	-le-
2A\yy	-le-	.	1A	-lu-	2.e\)yy	.	.	.
2AA/yy	-lu-	.	.	.	.	.	2cc#X\yy	-lu-
.	.	.	.	.	4e\yy	-lu-	.	.
=42	=42	=42	=42	=42	=42	=42	=42	=42
2D\yy	-ia	.	2A/	-ia	2f#X\yy	-ia	2dd\yy	-ja
2G\yy	al-	.	1G	al-	2g\yy	al-	(>2bn\yy	al-
2C/yy	.	.	.	.	(>2e\yy	-le-	2ccn\)yy	.
=43	=43	=43	=43	=43	=43	=43	=43	=43
2F\yy	-le-	.	(<2A/	-le-	4f\yy	.	1ccyy	-le-
.	.	.	.	.	4e\)yy	.	.	.
2G\yy	.	.	2G/)	.	1dyy	-lu-	.	.
2GG/yy	-lu-	.	2G/	-lu-	.	.	2bn\yy	-lu-
=44	=44	=44	=44	=44	=44	=44	=44	=44
2C/yy	-ia	.	2G/	-ia	2e\yy	-ia	2cc\yy	-ia
2c\yy	al-	.	2G/	al-	2e\yy	al-	1ccyy	al-
2F\yy	.	.	2A/	.	2f\yy	-le-	.	.
=45	=45	=45	=45	=45	=45	=45	=45	=45
2B-\yy	-le-	.	(>2d\	-le-	(>1fyy	-lu-	(>4b-\Lyy	-le-
.	.	.	.	.	.	.	4a\)Jyy	.
2c\yy	.	.	2c\)	.	.	.	1gyy	-lu-
2C/yy	-lu-	.	2c\	-lu-	2e\)yy	.	.	.
=46	=46	=46	=46	=46	=46	=46	=46	=46
1.Fyy	-ia.	.	1.c	-ia.	1.fyy	-ia.	1.ayy	-ja.
==	==	==	==	==	==	==	==	==
*-	*-	*-	*-	*-	*-	*-	*-	*-
!!!system-decoration: [(s1,s2,s3,s4)]
!!!RDF**kern: > = above
!!!RDF**kern: < = below
!!!EED: Mateusz Mrugas
!!!EST: 2021-02-04
!!!ENC: Mateusz Solarz
!!!END: 2021-01-28
